X:867
T:Wee Kirkcudbright Centipede #1, The 
C:Joe Buchanan's Scottish Tome - Page 429.0
I:429 0
R:Two-step
Z:Carl Allison
L:1/8
M:6/8
K:G
G | "C"G2 E "C"E2 E | "C"E E "C"E3 | "Dm"F2 E "Dm"D2 E | "Dm"F6 |
"G7"B2 B "G7"BBB | "G7"B2 B "G7"BAG | "G7"AAG "G7"F2 G | "C"E6 |
"C"G2 E "C"E2 E | "C"E3 "C"E2 E | "Dm"F2 E "Dm"D2 E | "Dm"F3- "Dm"F2 "G7"G |
"G7"B2 B "G7"B2 B | "G7"B3 "G7"BAB | "G7"GGG "G7"A2 B | "C"c3- "C"c2 "G7"G |]
"C"G2 E "C"E2 E | "C"E2 E "C"E2 E | "Dm"F2 E "Dm"D2 E | "Dm"F3- F2 |
"G7"B3 B2 "G7"B | "G7"B2 B "G7"B2 G | "G7"A2 G "G7"F2 G | "C"E3- "C"E2 E |
"C"G3 "C"E2 E | "C"E E "C"E E | "Dm"FFE "Dm"D2 E | "Dm"F3 "Dm"F3 |
"G7"B3 "G7"BBB | "G7"B2 B "G7"B2 A | "G7"GGG "G7"A2 B | "C"c3- "C"c3 |]

